X: 1
T: Hanter-dro 1    [G]
G:Kazimodal
R:Hanter-dro
C:Traditionnel, arrangement Ronan Keryell http://kazimodal.trad.org
Q:C2=116
M:3/4
S:Tonioù Breizh-Izel 1926 (Pleuigner)
K:G
|: "G"{GA}GF/2G/2 "Am"(Ac) "Bm"{Bc}BG | "C"(AB/2)c/2 "D"dc "Em"{Bc}BG |\
"G"{GA}GF/2G/2 "Am"(Ac) "Bm"{Bc}BG | "C"(AB/2)c/2 "D"d{cB}c A2 :|
|: "G"{Bc}BA/2B/2 dd "Em"(BG) | "C"{GA}GF/2G/2 (BA/2)G/2 "D"A2 |\
"G"{Bc}BA/2B/2 dc "Em"(BG) | "C"{GA}GF/2G/2 "D"(AB) "G"G2 :|

%%sep 1 1 500

